src/assets/tokens/dgnberaland.svg

<svg xmlns="http://www.w3.org/2000/svg" fill="none" viewBox="0 0 623 623"><g clip-path="url(#a)"><path fill="#00EBAB" d="M311.5 623C483.537 623 623 483.537 623 311.5S483.537 0 311.5 0 0 139.463 0 311.5 139.463 623 311.5 623"/><path fill="#000" d="M415.885 113.156c30.401-2.391 58.753 14.62 67.02 44.543 5.943 21.589-1.64 46.456-18.173 61.35-.956.888-6.763 4.987-6.763 5.602 13.663 19.402 23.706 41.4 28.693 64.697 22.272 103.228-49.598 203.928-153.168 219.026-93.937 13.732-181.384-47.549-198.463-140.939-9.838-53.698 6.08-109.172 41.059-150.368-17.695-23.774-22.34-64.492-2.186-88.061 23.842-27.874 58.958-13.595 75.354 13.937 3.621 6.08 5.944 12.638 8.471 19.197 8.677-3.074 17.695-5.397 26.781-6.968 25.209-4.373 50.897-3.416 75.696 2.869.342 0 .547-.137.752-.41.478-.615 2.117-6.012 2.732-7.378 9.087-20.086 29.923-35.389 52.127-37.165zm1.503 8.608c-21.657 1.708-42.22 17.49-47.891 38.668l4.578 1.708c9.906-13.459 33.612-22.408 47.685-10.453 8.813 7.447 13.937 16.67 15.167 28.352.683 6.9-2.186 10.18-5.056 15.918l20.974 21.315c12.844-9.222 22.613-23.774 23.501-39.897 1.913-33.544-26.234-58.207-59.026-55.611zm-169.906 38.531c-6.832-26.029-40.034-51.921-64.151-28.693-19.743 18.992-16.874 58.07-.956 78.565l10.316-9.974c-.547-1.64-1.708-2.869-2.323-4.714-7.242-21.657 6.012-52.741 32.451-48.232 8.745 1.503 18.036 7.378 24.663 13.048m157.882-5.533c-7.651.136-17.489 4.782-22.408 10.589 14.893 6.49 28.967 14.62 41.81 24.526 1.298-1.913 3.621-5.329 3.553-7.652 0-1.912-1.435-6.831-2.05-8.813-2.732-9.018-10.589-18.855-20.905-18.65M242.221 168.22c.137-.546-.136-.615-.341-.956-.957-1.435-4.919-4.851-6.422-5.944-11.546-8.403-28.079-7.993-34.842 6.012-4.236 8.745-3.211 18.241-1.913 27.532 12.912-10.384 27.054-19.402 42.152-26.37.41-.205.888-.342 1.366-.274m157.609 43.86c.274-.41-1.161-2.049-1.503-2.459-15.576-18.583-46.866-39.283-69.684-47.344-1.708-.615-3.142-1.093-4.987-.82 5.329 4.167 10.999 7.856 16.328 12.024 16.26 12.775 30.47 28.215 42.63 44.953zm-37.916 99.061c-4.851-53.22-23.501-105.209-56.84-147.088l-.752-.342-4.304.82c-13.595 21.589-24.184 44.133-32.451 68.318-4.577 13.322-9.154 27.259-8.881 41.537 24.936 1.571 46.934 17.763 58.002 39.761 15.098-.478 30.196-1.23 45.158-3.006zm-13.459-84.031c8.335-1.571 16.738-3.347 24.868-5.67.82-.205 3.689-.683 3.553-1.64 0-.41-4.168-5.602-4.851-6.422-8.335-10.384-18.856-20.153-29.103-28.693-8.608-7.174-17.626-14.074-27.191-19.881l17.08 28.489c5.533 11.067 11.34 22.067 15.576 33.749zm-94.21 46.866c2.05-26.917 11.819-52.878 23.297-77.062a357 357 0 0 1 7.241-14.484c2.801-5.123 6.764-10.521 9.223-15.508.205-.478.478-.751.342-1.366-63.126 14.005-106.713 72.007-118.873 133.288.205.82 6.012 2.596 7.173 2.937 4.578 1.503 9.36 2.392 14.005 3.69h.479c11.75-19.608 34.022-32.725 57.113-31.563zm100.906-107.669c19.402 10.863 36.413 25.551 51.033 42.221l.478.136c5.056-2.732 10.384-5.533 13.732-10.316.137-.614-1.093-1.434-1.503-1.776-13.8-12.297-44.475-27.054-62.579-30.47-.41-.068-1.23-.478-1.161.205m-97.558 5.261c-5.602 1.571-10.999 3.962-16.26 6.422-12.639 6.012-25.209 14.005-36.072 22.818-1.981 1.639-16.601 14.483-16.328 15.576 3.895 2.801 8.267 5.056 13.049 5.807 10.931-15.781 24.936-29.445 40.444-40.785l15.098-9.838zm182.818 92.229c8.881 2.049 17.626 5.329 25.278 10.179.888.068 4.304-5.875 4.577-6.968.137-.615.137-1.025 0-1.708-.342-1.776-2.801-6.695-3.689-8.677-5.466-11.887-13.117-23.979-21.315-34.158-1.982-2.46-17.421-19.744-18.924-19.334-3.621 5.123-9.087 8.061-14.347 11.204-.273.205-.683-.137-.478.615 11.819 14.893 22.203 31.084 28.966 48.915zm-22.955 36.072c6.081-1.708 12.161-3.758 17.968-6.217.956-.41 5.397-2.118 5.602-2.665-6.49-26.439-18.992-52.126-36.14-73.168l-17.489 6.832c15.029 22.613 26.097 48.095 29.991 75.218zm-248.745-4.099c5.193-24.048 15.099-47.071 28.831-67.43.136-.478-.274-.615-.547-.82-3.416-2.391-8.198-4.236-11.682-6.763l-.82.136c-15.577 18.036-27.805 38.941-35.115 61.691-.137 1.571 5.602 5.876 7.036 6.9 2.46 1.708 5.807 3.621 8.54 4.987 1.161.615 2.391 1.435 3.757 1.299m200.308 14.21c12.571-1.777 25.824-3.69 38.053-7.174.752-.205 3.416-.751 3.553-1.298-4.031-26.985-14.142-53.014-29.445-75.491-9.975 2.869-20.154 5.056-30.538 5.944 9.291 25.141 16.533 51.101 18.377 78.019m92.707-31.836-17.626-5.603 4.099 15.03c.41.342 8.54-4.987 9.497-5.67 1.229-.888 2.391-1.845 3.552-2.801.273-.205.752 0 .478-.82zm20.222 50.281c0-17.421-2.459-34.842-7.651-51.375-5.739 8.335-14.21 14.347-23.092 18.993l-.615.956 2.528 12.639c10.453 4.714 19.402 12.297 28.83 18.856zm-232.28-47.959c-57.729 3.485-77.472 70.436-36.892 108.694 38.19 36.003 102.682 13.8 105.62-39.966 2.049-37.438-31.153-70.982-68.728-68.728m-82.869 23.57-20.086-12.775c-4.782 18.309-6.763 37.369-5.397 56.293l9.155-4.918 12.98-4.509c.41-11.41 1.298-22.819 3.416-34.023zm276.55-3.758-24.731 8.677c.683 8.54.82 17.079.683 25.687l-1.093 12.024c0 1.025 5.192 4.031 6.285 4.919 3.006 2.255 6.012 4.509 8.881 6.9 3.621 3.143 6.832 6.695 10.521 9.77 3.963-22.477 3.553-45.5-.546-67.908zm-250.658 13.117-18.924-5.26c-1.64 9.428-2.528 18.992-2.801 28.557l16.123-.752c.546-7.788 2.596-15.371 5.602-22.476zm219.095-2.664c-13.8 3.689-27.874 6.217-41.947 8.267l.341 8.608c7.584 1.093 15.509 3.62 22.614 6.49 6.695 2.664 12.912 6.217 19.402 9.291.956-10.863.683-21.793-.41-32.656m41.674 54.449c5.875-2.732 11.819-5.67 17.353-9.086 2.186-1.366 7.583-4.509 9.086-6.285.615-.752.751-1.64.888-2.528.41-2.254.683-5.875.82-8.198 0-.956.205-2.255-.41-3.006l-26.439-18.582c-.888-.41-.615 2.391-.547 2.801.547 9.496 1.162 18.924.752 28.488l-1.503 16.328zm-90.794-45.431c-14.074 1.845-28.216 2.596-42.426 3.006 8.608 24.594 3.758 50.487-13.868 69.616l-9.77 8.813c20.017 0 39.966-2.46 59.573-6.08.957-5.671 2.118-11.341 3.006-17.08 2.05-13.527 3.143-27.19 3.826-40.786l-.41-17.489zm48.3 32.724c-12.775-7.856-26.644-13.663-40.854-18.446.205 12.639-.136 25.141-1.571 37.644-.82 7.241-2.391 14.415-3.348 21.588 13.391-2.459 26.644-5.807 39.693-9.838 2.664-10.111 5.465-20.495 6.012-31.016zm-223.877-10.179-16.123 2.254c0 11.819 1.298 23.638 3.552 35.252.274.547 1.025.82 1.572 1.093 6.558 3.416 15.303 6.764 22.271 9.633 4.168 1.708 8.403 3.484 12.776 4.714-14.347-13.732-24.253-32.656-23.98-52.878zm-23.638 4.509c-7.447 1.981-14.825 5.124-20.632 10.316 6.968 7.378 14.62 14.21 23.638 18.924zm274.227 25.482-.341-.956c-6.217-5.602-13.117-10.384-20.291-14.825l-4.85 24.731 25.482-9.018zm40.923-11.272-15.03 9.223c-1.708 1.298-11.956 5.055-12.366 6.422l13.459 24.116c.888.205.615-.137.82-.478.341-.547.82-1.572 1.093-2.255 5.465-11.682 9.086-24.458 11.955-37.028zm-287.755 80.342-8.198-15.235c-6.353-13.459-11.272-27.601-14.483-42.152-8.335-4.236-16.533-8.677-23.775-14.62 4.168 19.539 11.683 39.556 22.75 56.225 1.845 2.733 2.596 4.304 5.329 6.286 5.465 3.894 12.297 6.695 18.446 9.496zm250.59-60.803-32.451 11.272c-4.441 14.074-10.179 27.737-16.875 40.923l-11.477 20.222c10.316-1.913 20.837-3.758 30.743-6.9 14.074-19.676 24.253-41.948 29.992-65.449zm-16.875 61.896 18.993-6.764c6.832-8.608 12.912-17.694 18.036-27.395.273-.547.136-.957 0-1.503-.479-1.845-3.416-7.037-4.509-9.018-2.255-4.099-4.919-7.993-7.31-12.024-.547 0-.547.547-.752.956-1.161 3.075-1.844 6.969-2.937 10.18a199.4 199.4 0 0 1-21.452 45.499zm-168.813-29.24a70.4 70.4 0 0 1-16.806-2.87c-11.067-3.415-23.023-7.788-34.022-11.75-9.633-3.416-19.129-7.379-28.694-10.863 4.851 20.632 13.664 40.239 25.62 57.66 21.178 7.037 43.245 11.409 65.516 13.254-5.329-14.62-10.452-29.786-11.614-45.363zm116.55 41.127c12.024-18.992 22.34-39.283 29.377-60.666l-38.873 9.359c-4.304 19.198-11.136 37.575-18.924 55.543zm-18.241-49.804c-7.31 1.162-14.619 2.46-21.998 3.348-8.744 1.025-17.489 1.571-26.234 1.913-1.025 0-1.913.41-2.937.41-7.31.205-16.465-1.162-23.297-.41-3.074.341-7.242 1.913-10.589 2.528-2.528.41-5.056.683-7.583.888 1.708 15.781 5.26 31.153 11.682 45.704 15.645 1.367 31.358 1.23 47.071 1.23l14.825-.956c.683-.342 2.664-5.466 3.142-6.559 6.627-15.508 11.751-31.699 15.987-48.027zM221.248 477.7c-8.882-8.062-16.738-16.943-23.843-26.644l-16.328-7.105c-.137.683.41.888.751 1.298 7.857 9.496 19.403 19.334 29.514 26.37 3.142 2.187 6.422 4.509 9.906 6.081m213.083-31.495-15.167 4.509c-6.763 8.745-13.732 17.285-21.588 25.141l9.154-5.67c9.907-7.105 19.403-14.962 27.669-23.911zm-29.308 7.857-29.104 6.012-9.769 13.868-17.011 22.203c.546.479 11.819-3.074 13.253-3.825 3.553-1.708 8.95-5.944 12.229-8.403 11.204-8.54 21.589-18.856 30.402-29.787zm-112.52 46.934c.137-.683-.273-.751-.546-1.093-1.298-1.708-3.348-3.416-4.851-5.261-7.242-9.017-12.502-19.402-17.489-29.786-20.222-1.64-40.376-4.509-60.052-9.565 7.652 9.497 16.943 17.968 26.918 25.073 12.433 8.813 25.892 15.781 40.922 18.719 4.987.957 10.043 1.435 15.098 1.981zm75.423-40.171-26.644 3.211c-6.49 12.434-12.98 24.936-20.29 36.96 5.807-.683 11.819-.888 17.489-2.596 10.384-12.092 20.974-23.98 29.445-37.506zm-35.252 3.758-20.837 1.161-35.867-.205c6.764 12.981 14.279 26.439 25.756 35.73h10.179c.547-1.639 1.572-3.279 2.528-4.782 6.559-10.384 13.322-20.632 18.173-31.904z"/><path fill="#000" d="M241.879 367.783c-2.254 7.924-14.483 11.409-20.085 5.26-1.845-1.981-3.553-7.173.068-7.856 2.596-.479 3.963 3.415 8.198 3.347 7.993-.137 8.13-10.862 8.472-16.738.136-2.186.478-10.247-.205-11.819-.273-.615-4.851-5.055-5.807-6.217-4.578-5.738-14.005-18.65-8.95-25.824 5.602-7.925 20.291-7.31 29.035-6.627 8.745.684 13.049 4.168 12.161 13.322-.888 9.838-13.254 20.291-19.334 27.601-.41.888-.273 2.869-.137 3.894.41 4.509 1.64 11.272 2.665 15.713 1.298 5.26 1.912 7.378 8.334 6.695 2.46-.273 3.553-1.913 5.397-2.459 4.099-1.093 4.578 3.825 2.801 6.558-3.962 6.08-16.806 4.304-20.563-1.161-.342-.478-1.708-4.031-2.05-3.758zm79.993-99.95c-11.955-13.049 9.701-30.47 20.154-16.192 9.086 12.434-8.95 28.42-20.154 16.192M206.145 244.81c10.931-1.571 19.676 9.155 15.303 19.403-5.465 12.843-24.116 9.906-25.96-3.69-.889-6.558 3.757-14.756 10.725-15.781z"/></g><defs><clipPath id="a"><path fill="#fff" d="M0 0h623v623H0z"/></clipPath></defs></svg>

<svg width="623" height="623" viewBox="0 0 623 623" fill="none" xmlns="http://www.w3.org/2000/svg">
<g clip-path="url(#clip0_1276_55368)">
<path d="M311.5 623C483.537 623 623 483.537 623 311.5C623 139.463 483.537 0 311.5 0C139.463 0 0 139.463 0 311.5C0 483.537 139.463 623 311.5 623Z" fill="#00EBAB"/>
<path d="M415.885 113.156C446.286 110.765 474.638 127.776 482.905 157.699C488.848 179.288 481.265 204.155 464.732 219.049C463.776 219.937 457.969 224.036 457.969 224.651C471.632 244.053 481.675 266.051 486.662 289.348C508.934 392.576 437.064 493.276 333.494 508.374C239.557 522.106 152.11 460.825 135.031 367.435C125.193 313.737 141.111 258.263 176.09 217.067C158.395 193.293 153.75 152.575 173.904 129.006C197.746 101.132 232.862 115.411 249.258 142.943C252.879 149.023 255.202 155.581 257.729 162.14C266.406 159.066 275.424 156.743 284.51 155.172C309.719 150.799 335.407 151.756 360.206 158.041C360.548 158.041 360.753 157.904 360.958 157.631C361.436 157.016 363.075 151.619 363.69 150.253C372.777 130.167 393.613 114.864 415.817 113.088L415.885 113.156ZM417.388 121.764C395.731 123.472 375.168 139.254 369.497 160.432L374.075 162.14C383.981 148.681 407.687 139.732 421.76 151.687C430.573 159.134 435.697 168.357 436.927 180.039C437.61 186.939 434.741 190.219 431.871 195.957L452.845 217.272C465.689 208.05 475.458 193.498 476.346 177.375C478.259 143.831 450.112 119.168 417.32 121.764H417.388ZM247.482 160.295C240.65 134.266 207.448 108.374 183.331 131.602C163.588 150.594 166.457 189.672 182.375 210.167L192.691 200.193C192.144 198.553 190.983 197.324 190.368 195.479C183.126 173.822 196.38 142.738 222.819 147.247C231.564 148.75 240.855 154.625 247.482 160.295ZM405.364 154.762C397.713 154.898 387.875 159.544 382.956 165.351C397.849 171.841 411.923 179.971 424.766 189.877C426.064 187.964 428.387 184.548 428.319 182.225C428.319 180.313 426.884 175.394 426.269 173.412C423.537 164.394 415.68 154.557 405.364 154.762ZM242.221 168.22C242.358 167.674 242.085 167.605 241.88 167.264C240.923 165.829 236.961 162.413 235.458 161.32C223.912 152.917 207.379 153.327 200.616 167.332C196.38 176.077 197.405 185.573 198.703 194.864C211.615 184.48 225.757 175.462 240.855 168.494C241.265 168.289 241.743 168.152 242.221 168.22ZM399.83 212.08C400.104 211.67 398.669 210.031 398.327 209.621C382.751 191.038 351.461 170.338 328.643 162.277C326.935 161.662 325.501 161.184 323.656 161.457C328.985 165.624 334.655 169.313 339.984 173.481C356.244 186.256 370.454 201.696 382.614 218.434L399.83 212.08ZM361.914 311.141C357.063 257.921 338.413 205.932 305.074 164.053L304.322 163.711L300.018 164.531C286.423 186.12 275.834 208.664 267.567 232.849C262.99 246.171 258.413 260.108 258.686 274.386C283.622 275.957 305.62 292.149 316.688 314.147C331.786 313.669 346.884 312.917 361.846 311.141H361.914ZM348.455 227.11C356.79 225.539 365.193 223.763 373.323 221.44C374.143 221.235 377.012 220.757 376.876 219.8C376.876 219.39 372.708 214.198 372.025 213.378C363.69 202.994 353.169 193.225 342.922 184.685C334.314 177.511 325.296 170.611 315.731 164.804L332.811 193.293C338.344 204.36 344.151 215.36 348.387 227.042L348.455 227.11ZM254.245 273.976C256.295 247.059 266.064 221.098 277.542 196.914C279.796 192.131 282.324 187.076 284.783 182.43C287.584 177.307 291.547 171.909 294.006 166.922C294.211 166.444 294.484 166.171 294.348 165.556C231.222 179.561 187.635 237.563 175.475 298.844C175.68 299.664 181.487 301.44 182.648 301.781C187.226 303.284 192.008 304.173 196.653 305.471H197.132C208.882 285.863 231.154 272.746 254.245 273.908V273.976ZM355.151 166.307C374.553 177.17 391.564 191.858 406.184 208.528L406.662 208.664C411.718 205.932 417.046 203.131 420.394 198.348C420.531 197.734 419.301 196.914 418.891 196.572C405.091 184.275 374.416 169.518 356.312 166.102C355.902 166.034 355.082 165.624 355.151 166.307ZM257.593 171.568C251.991 173.139 246.594 175.53 241.333 177.99C228.694 184.002 216.124 191.995 205.261 200.808C203.28 202.447 188.66 215.291 188.933 216.384C192.828 219.185 197.2 221.44 201.982 222.191C212.913 206.41 226.918 192.746 242.426 181.406L257.524 171.568H257.593ZM440.411 263.797C449.292 265.846 458.037 269.126 465.689 273.976C466.577 274.044 469.993 268.101 470.266 267.008C470.403 266.393 470.403 265.983 470.266 265.3C469.924 263.524 467.465 258.605 466.577 256.623C461.111 244.736 453.46 232.644 445.262 222.465C443.28 220.005 427.841 202.721 426.338 203.131C422.717 208.254 417.251 211.192 411.991 214.335C411.718 214.54 411.308 214.198 411.513 214.95C423.332 229.843 433.716 246.034 440.479 263.865L440.411 263.797ZM417.456 299.869C423.537 298.161 429.617 296.111 435.424 293.652C436.38 293.242 440.821 291.534 441.026 290.987C434.536 264.548 422.034 238.861 404.886 217.819L387.397 224.651C402.426 247.264 413.494 272.746 417.388 299.869H417.456ZM168.711 295.77C173.904 271.722 183.81 248.699 197.542 228.34C197.678 227.862 197.268 227.725 196.995 227.52C193.579 225.129 188.797 223.284 185.313 220.757L184.493 220.893C168.916 238.929 156.688 259.834 149.378 282.584C149.241 284.155 154.98 288.46 156.414 289.484C158.874 291.192 162.221 293.105 164.954 294.471C166.115 295.086 167.345 295.906 168.711 295.77ZM369.019 309.98C381.59 308.203 394.843 306.29 407.072 302.806C407.824 302.601 410.488 302.055 410.625 301.508C406.594 274.523 396.483 248.494 381.18 226.017C371.205 228.886 361.026 231.073 350.642 231.961C359.933 257.102 367.175 283.062 369.019 309.98ZM461.726 278.144L444.1 272.541L448.199 287.571C448.609 287.913 456.739 282.584 457.696 281.901C458.925 281.013 460.087 280.056 461.248 279.1C461.521 278.895 462 279.1 461.726 278.28V278.144ZM481.948 328.425C481.948 311.004 479.489 293.583 474.297 277.05C468.558 285.385 460.087 291.397 451.205 296.043L450.59 296.999L453.118 309.638C463.571 314.352 472.52 321.935 481.948 328.494V328.425ZM249.668 280.466C191.939 283.951 172.196 350.902 212.776 389.16C250.966 425.163 315.458 402.96 318.396 349.194C320.445 311.756 287.243 278.212 249.668 280.466ZM166.799 304.036L146.713 291.261C141.931 309.57 139.95 328.63 141.316 347.554L150.471 342.636L163.451 338.127C163.861 326.717 164.749 315.308 166.867 304.104L166.799 304.036ZM443.349 300.278L418.618 308.955C419.301 317.495 419.438 326.034 419.301 334.642L418.208 346.666C418.208 347.691 423.4 350.697 424.493 351.585C427.499 353.84 430.505 356.094 433.374 358.485C436.995 361.628 440.206 365.18 443.895 368.255C447.858 345.778 447.448 322.755 443.349 300.347V300.278ZM192.691 313.395L173.767 308.135C172.127 317.563 171.239 327.127 170.966 336.692L187.089 335.94C187.635 328.152 189.685 320.569 192.691 313.464V313.395ZM411.786 310.731C397.986 314.42 383.912 316.948 369.839 318.998L370.18 327.606C377.764 328.699 385.689 331.226 392.794 334.096C399.489 336.76 405.706 340.313 412.196 343.387C413.152 332.524 412.879 321.594 411.786 310.731ZM453.46 365.18C459.335 362.448 465.279 359.51 470.813 356.094C472.999 354.728 478.396 351.585 479.899 349.809C480.514 349.057 480.65 348.169 480.787 347.281C481.197 345.027 481.47 341.406 481.607 339.083C481.607 338.127 481.812 336.828 481.197 336.077L454.758 317.495C453.87 317.085 454.143 319.886 454.211 320.296C454.758 329.792 455.373 339.22 454.963 348.784L453.46 365.112V365.18ZM362.666 319.749C348.592 321.594 334.45 322.345 320.24 322.755C328.848 347.349 323.998 373.242 306.372 392.371L296.602 401.184C316.619 401.184 336.568 398.724 356.175 395.104C357.132 389.433 358.293 383.763 359.181 378.024C361.231 364.497 362.324 350.834 363.007 337.238L362.597 319.749H362.666ZM410.966 352.473C398.191 344.617 384.322 338.81 370.112 334.027C370.317 346.666 369.976 359.168 368.541 371.671C367.721 378.912 366.15 386.086 365.193 393.259C378.584 390.8 391.837 387.452 404.886 383.421C407.55 373.31 410.351 362.926 410.898 352.405L410.966 352.473ZM187.089 342.294L170.966 344.548C170.966 356.367 172.264 368.186 174.518 379.8C174.792 380.347 175.543 380.62 176.09 380.893C182.648 384.309 191.393 387.657 198.361 390.526C202.529 392.234 206.764 394.01 211.137 395.24C196.79 381.508 186.884 362.584 187.157 342.362L187.089 342.294ZM163.451 346.803C156.004 348.784 148.626 351.927 142.819 357.119C149.787 364.497 157.439 371.329 166.457 376.043L163.451 346.803ZM437.678 372.285L437.337 371.329C431.12 365.727 424.22 360.945 417.046 356.504L412.196 381.235L437.678 372.217V372.285ZM478.601 361.013L463.571 370.236C461.863 371.534 451.615 375.291 451.205 376.658L464.664 400.774C465.552 400.979 465.279 400.637 465.484 400.296C465.825 399.749 466.304 398.724 466.577 398.041C472.042 386.359 475.663 373.583 478.532 361.013H478.601ZM190.846 441.355L182.648 426.12C176.295 412.661 171.376 398.519 168.165 383.968C159.83 379.732 151.632 375.291 144.39 369.348C148.558 388.887 156.073 408.904 167.14 425.573C168.985 428.306 169.736 429.877 172.469 431.859C177.934 435.753 184.766 438.554 190.915 441.355H190.846ZM441.436 380.552L408.985 391.824C404.544 405.898 398.806 419.561 392.11 432.747L380.633 452.969C390.949 451.056 401.47 449.211 411.376 446.069C425.45 426.393 435.629 404.121 441.368 380.62L441.436 380.552ZM424.561 442.448L443.554 435.684C450.386 427.076 456.466 417.99 461.59 408.289C461.863 407.742 461.726 407.332 461.59 406.786C461.111 404.941 458.174 399.749 457.081 397.768C454.826 393.669 452.162 389.775 449.771 385.744C449.224 385.744 449.224 386.291 449.019 386.7C447.858 389.775 447.175 393.669 446.082 396.88C440.889 412.866 433.648 428.238 424.63 442.379L424.561 442.448ZM255.748 413.208C250.078 412.934 244.407 411.978 238.942 410.338C227.875 406.923 215.919 402.55 204.92 398.588C195.287 395.172 185.791 391.209 176.226 387.725C181.077 408.357 189.89 427.964 201.846 445.385C223.024 452.422 245.091 456.794 267.362 458.639C262.033 444.019 256.91 428.853 255.748 413.276V413.208ZM372.298 454.335C384.322 435.343 394.638 415.052 401.675 393.669L362.802 403.028C358.498 422.226 351.666 440.603 343.878 458.571L372.298 454.335ZM354.057 404.531C346.747 405.693 339.438 406.991 332.059 407.879C323.315 408.904 314.57 409.45 305.825 409.792C304.8 409.792 303.912 410.202 302.888 410.202C295.578 410.407 286.423 409.04 279.591 409.792C276.517 410.133 272.349 411.705 269.002 412.32C266.474 412.73 263.946 413.003 261.419 413.208C263.127 428.989 266.679 444.361 273.101 458.912C288.746 460.279 304.459 460.142 320.172 460.142L334.997 459.186C335.68 458.844 337.661 453.72 338.139 452.627C344.766 437.119 349.89 420.928 354.126 404.6L354.057 404.531ZM221.248 477.7C212.366 469.638 204.51 460.757 197.405 451.056L181.077 443.951C180.94 444.634 181.487 444.839 181.828 445.249C189.685 454.745 201.231 464.583 211.342 471.619C214.484 473.806 217.764 476.128 221.248 477.7ZM434.331 446.205L419.164 450.714C412.401 459.459 405.432 467.999 397.576 475.855L406.73 470.185C416.637 463.08 426.133 455.223 434.399 446.274L434.331 446.205ZM405.023 454.062L375.919 460.074L366.15 473.942L349.139 496.145C349.685 496.624 360.958 493.071 362.392 492.32C365.945 490.612 371.342 486.376 374.621 483.917C385.825 475.377 396.21 465.061 405.023 454.13V454.062ZM292.503 500.996C292.64 500.313 292.23 500.245 291.957 499.903C290.659 498.195 288.609 496.487 287.106 494.642C279.864 485.625 274.604 475.24 269.617 464.856C249.395 463.216 229.241 460.347 209.565 455.291C217.217 464.788 226.508 473.259 236.483 480.364C248.916 489.177 262.375 496.145 277.405 499.083C282.392 500.04 287.448 500.518 292.503 501.064V500.996ZM367.926 460.825L341.282 464.036C334.792 476.47 328.302 488.972 320.992 500.996C326.799 500.313 332.811 500.108 338.481 498.4C348.865 486.308 359.455 474.42 367.926 460.894V460.825ZM332.674 464.583L311.837 465.744L275.97 465.539C282.734 478.52 290.249 491.978 301.726 501.269H311.905C312.452 499.63 313.477 497.99 314.433 496.487C320.992 486.103 327.755 475.855 332.606 464.583H332.674Z" fill="black"/>
<path d="M241.879 367.783C239.625 375.707 227.396 379.192 221.794 373.043C219.949 371.062 218.241 365.87 221.862 365.187C224.458 364.708 225.825 368.602 230.06 368.534C238.053 368.397 238.19 357.672 238.532 351.796C238.668 349.61 239.01 341.549 238.327 339.977C238.054 339.362 233.476 334.922 232.52 333.76C227.942 328.022 218.515 315.11 223.57 307.936C229.172 300.011 243.861 300.626 252.605 301.309C261.35 301.993 265.654 305.477 264.766 314.631C263.878 324.469 251.512 334.922 245.432 342.232C245.022 343.12 245.159 345.101 245.295 346.126C245.705 350.635 246.935 357.398 247.96 361.839C249.258 367.099 249.872 369.217 256.294 368.534C258.754 368.261 259.847 366.621 261.691 366.075C265.79 364.982 266.269 369.9 264.492 372.633C260.53 378.713 247.686 376.937 243.929 371.472C243.587 370.994 242.221 367.441 241.879 367.714V367.783Z" fill="black"/>
<path d="M321.872 267.833C309.917 254.784 331.573 237.363 342.026 251.641C351.112 264.075 333.076 280.061 321.872 267.833Z" fill="black"/>
<path d="M206.145 244.81C217.076 243.239 225.821 253.965 221.448 264.213C215.983 277.056 197.332 274.119 195.488 260.523C194.599 253.965 199.245 245.767 206.213 244.742L206.145 244.81Z" fill="black"/>
</g>
<defs>
<clipPath id="clip0_1276_55368">
<rect width="623" height="623" fill="white"/>
</clipPath>
</defs>
</svg>
